X:1
T:[ID 3-43b]
T:[ID 3-43b]
T:Bezeichnung standardisiert: Menuett Menuet 35.
T:Urheber unbekannt Erstbeleg: 1767 (Datum in der schriftlichen Quelle) Datum in der hier transkribierten schriftlichen Quelle: 1775
C:Urheber unbekannt
C:Erstbeleg: 1767 (Datum in der schriftlichen Quelle)
C:Datum in der hier transkribierten schriftlichen Quelle: 1775
L:1/8
M:3/4
K:G
V:1 treble 
V:1
 G2 G2 D2 | G2 F2 G2 | G2 G2 GB | B2 A2 G2 | B3 cBc | B3 cBc | B2 A2 G2 | G2 F4 :: Bc B2 A2 | %9
 GB,GBBc | Bc B2 A2 | GB,GB B2 | gfedcB | cBAGFE | FAGAB,A, | B,4 z2 :| %16

